X:303
T: Charming Molly
N: O'Farrell's Pocket Companion v.4 (Sky ed. p.135)
N: "Irish"
M: 2/4
L: 1/8
R: polka
Q: 240
K: Ador
eAA>B | e/f/e/d/ B2| eAAB| d/e/d/c/ BG|
eAA>B | e/f/e/d/ B>A| G>ABg| e>d BA :|
dega | ba/g/ a2| deg>a| ba/g/ a>e|
g/f/g/a/ b>a| g/f/e/d/ B>A| G>A Bg| edBA :|
